apps/client/assets/template-one/star.svg

<svg width="24" height="24" viewBox="0 0 24 24" fill="none" xmlns="http://www.w3.org/2000/svg">
<path d="M11.7195 23.08C11.5395 23.08 11.3895 22.95 11.3795 22.77C10.4395 13.59 9.83949 12.99 0.659485 12.05C0.479485 12.03 0.349487 11.88 0.349487 11.71C0.349487 11.54 0.479485 11.38 0.659485 11.37C9.83949 10.43 10.4395 9.83 11.3795 0.649996C11.3995 0.469996 11.5495 0.339996 11.7195 0.339996C11.8995 0.339996 12.0495 0.469996 12.0595 0.649996C12.9995 9.83 13.5995 10.43 22.7795 11.37C22.9595 11.39 23.0895 11.54 23.0895 11.71C23.0895 11.88 22.9595 12.04 22.7795 12.05C13.5995 12.99 12.9995 13.59 12.0595 22.77C12.0395 22.95 11.8895 23.08 11.7195 23.08Z" fill="#FEF8F8"/>
<path d="M11.7195 0.690001C12.6695 9.99 13.4396 10.77 22.7496 11.72C13.4496 12.67 12.6695 13.44 11.7195 22.75C10.7695 13.44 9.99958 12.67 0.689575 11.72C9.98958 10.77 10.7695 10 11.7195 0.690001ZM11.7195 0C11.3695 0 11.0695 0.270001 11.0295 0.620001C10.1095 9.62 9.61957 10.11 0.619568 11.03C0.449377 11.0484 0.291981 11.129 0.177612 11.2563C0.0632438 11.3837 0 11.5488 0 11.72C0 11.8912 0.0632438 12.0563 0.177612 12.1837C0.291981 12.311 0.449377 12.3916 0.619568 12.41C9.61957 13.33 10.1095 13.82 11.0295 22.82C11.0479 22.9902 11.1285 23.1476 11.2559 23.262C11.3832 23.3763 11.5484 23.4396 11.7195 23.4396C11.8907 23.4396 12.0559 23.3763 12.1832 23.262C12.3106 23.1476 12.3912 22.9902 12.4095 22.82C13.3295 13.82 13.8196 13.33 22.8196 12.41C22.9898 12.3916 23.1472 12.311 23.2615 12.1837C23.3759 12.0563 23.4391 11.8912 23.4391 11.72C23.4391 11.5488 23.3759 11.3837 23.2615 11.2563C23.1472 11.129 22.9898 11.0484 22.8196 11.03C13.8196 10.11 13.3295 9.62 12.4095 0.620001C12.3913 0.449737 12.3107 0.292234 12.1833 0.177782C12.056 0.0633304 11.8908 1.07277e-05 11.7195 0Z" fill="#1B162A"/>
</svg>

<svg viewBox="0 0 24 24" fill="none" xmlns="http://www.w3.org/2000/svg"><path d="M11.72 23.08c-.18 0-.33-.13-.34-.31-.94-9.18-1.54-9.78-10.72-10.72a.345.345 0 0 1-.31-.34c0-.17.13-.33.31-.34 9.18-.94 9.78-1.54 10.72-10.72.02-.18.17-.31.34-.31.18 0 .33.13.34.31.94 9.18 1.54 9.78 10.72 10.72.18.02.31.17.31.34s-.13.33-.31.34c-9.18.94-9.78 1.54-10.72 10.72-.02.18-.17.31-.34.31" fill="#FEF8F8"/><path d="M11.72.69c.95 9.3 1.72 10.08 11.03 11.03-9.3.95-10.08 1.72-11.03 11.03C10.77 13.44 10 12.67.69 11.72 9.99 10.77 10.77 10 11.72.69m0-.69c-.35 0-.65.27-.69.62-.92 9-1.41 9.49-10.41 10.41a.694.694 0 0 0 0 1.38c9 .92 9.49 1.41 10.41 10.41a.694.694 0 0 0 1.38 0c.92-9 1.41-9.49 10.41-10.41a.694.694 0 0 0 0-1.38c-9-.92-9.49-1.41-10.41-10.41a.694.694 0 0 0-.69-.62" fill="#1B162A"/></svg>
